!!!OTL: LASST NUR DER JUGEND IHREN LAUF
!!!ARE: Europa, Mitteleuropa, Deutschland, Franken
!!!SCT: E1023A
!!!YEM: Copyright 1995, estate of Helmut Schaffrath.
**kern
*ICvox
*Ivox
*M3/4
*k[f#]
*G:
=1
{4g
4b
4b
=2
4b
4.dd}
{8b
=3
4a
4.cc
8cc
=4
8b
8b
8ee
8dd
4dd}
=5
{4g
4b
4b
=6
4b
4.dd}
{8b
=7
4a
4a
8dd
8dd
=8
2b
4r}
=9
{8a
8a
8dd
8dd
8ff#
8ff#
=10
8ff#
8ee
8dd
8cc#
4dd}
=11
{4a
4dd
4ff#
=12
8ff#
8ee
8dd
8cc#
4dd}
=13
{4g
4b
4b
=14
4b
4.dd}
{8b
=15
4a
4.cc
8cc
=16
8b
8b
8ee
8dd
4dd}
=17
{4g
4b
4b
=18
4b
4.dd}
{8b
=19
4a
4a
8dd
8dd
=20
2b
4r}
==
!!!AGN: Tanz - Lied, Walzer
!!!ONB: ESAC (Essen Associative Code) Database: ERK3
!!!AMT: simple triple
!!!AIN: vox
!!!EED: Helmut Schaffrath
!!!EEV: 1.0
*-
